X: 58
T: No_62_Buffalo_Dance_Song_(c).krn
N: Derived from No_62_Buffalo_Dance_Song_(c).krn
%%abc-version 2.0
%%abcx-abcm2ps-target-version 5.9.1 (29 Sep 2008)
%%abc-creator hum2abc beta
%%abcx-conversion-date 2019/03/15 08:25:35
%%humdrum-veritas 165715727
%%humdrum-veritas-data 3820076549
%%linebreak <none>
%%barnumbers 0
L: 1/4
M: 2/4
K: G clef=bass
[K:clef=bass][M:2/4]G,G, | 
G,G, | 
[M:3/4]G,G,G,/ z/ ]|:  
[M:2/4]DE | 
D7//G,// | 
[M:3/4]DED | 
[M:2/4]CC3//G,// | 
CC3//G,// | 
G,G,3//D,// | 
G,/E,/ D,3//D,// | 
D,D,/ z/ | 
[M:3/4]D,/D,/D,D, | 
D,D,/ z/z | 
D,D,D, :|]  
D,D,D,/ z// B,// [I:setbarnb 16]]|:  
[M:2/4]DD | 
B,/G,/ G,/G,/ | 
[M:3/4]G,G,z3// D// | 
EED/A,/ | 
DD | 
B,/G,/ G,/G,/ | 
[M:3/4]G,G,z3// A,// | 
B,B,A,/G,/ | 
[M:2/4]A,A,/ z/ | 
[M:3/4]G,/D,/ G,/D,/ D,/D,/ | 
D,D,z3// D// :|]  
D,D,/ z/D, | 
D,2D, | 
D,2z | 
[M:2/4]zG, | 
A,2 | 
E2 | 
[M:3/4]DED | 
[M:2/4]D2 | 
Dz | 
[M:4/4]A,B,/A,/G,G, | 
[M:2/4]D,2 | 
G,2 | 
[M:3/4]G,zA, | 
[M:2/4]B,2 | 
E2 | 
[M:3/4]DED | 
[M:2/4]D2 | 
Dz | 
A,B,/A,/ | 
G,G, | 
G,2 | 
G,2 | 
[M:3/4]G,zF ]|:  
[M:2/4]G2 | 
A2 | 
[M:3/4]GAE | 
[M:2/4]E2 | 
E2 | 
[M:3/4]EzG | 
[M:2/4]D2 | 
E2 | 
[M:3/4]DEB, | 
[M:2/4]G,2 | 
G,2 | 
G,z | 
A,A, | 
[M:3/4]A,G,G, | 
[M:2/4]A,A, | 
[M:3/4]E,E,z | 
[M:2/4]G,E, | 
[M:4/4]G,G,G,2 | 
[M:2/4]G,2 | 
[M:3/4]G,2F :|]  
[M:2/4]G,z | 
G,2 | 
G,2- | 
G,2 | 
G,7//G,// | 
G,/ z/z |]  



